static/img/kroki/86ca7b6c7560093b7a8b944b0539bdaf.svg

<?xml version="1.0" encoding="us-ascii" standalone="no"?><svg xmlns="http://www.w3.org/2000/svg" xmlns:xlink="http://www.w3.org/1999/xlink" contentStyleType="text/css" height="773px" preserveAspectRatio="none" style="width:450px;height:773px;" version="1.1" viewBox="0 0 450 773" width="450px" zoomAndPan="magnify"><defs/><g><!--class azure_network_usage--><g id="elem_azure_network_usage"><rect codeLine="23" fill="#3D176E" height="39.7891" id="azure_network_usage" rx="2.5" ry="2.5" style="stroke:#000D19;stroke-width:0.5;" width="225" x="109.5" y="727.73"/><ellipse cx="124.5" cy="747.6245" fill="#ADD1B2" rx="11" ry="11" style="stroke:#181818;stroke-width:1.0;"/><path d="M127.4688,753.2652 Q126.8906,753.562 126.25,753.7027 Q125.6094,753.8589 124.9063,753.8589 Q122.4063,753.8589 121.0781,752.2183 Q119.7656,750.562 119.7656,747.437 Q119.7656,744.312 121.0781,742.6558 Q122.4063,740.9995 124.9063,740.9995 Q125.6094,740.9995 126.25,741.1558 Q126.9063,741.312 127.4688,741.6089 L127.4688,744.3277 Q126.8438,743.7495 126.25,743.4839 Q125.6563,743.2027 125.0313,743.2027 Q123.6875,743.2027 123,744.2808 Q122.3125,745.3433 122.3125,747.437 Q122.3125,749.5308 123,750.6089 Q123.6875,751.6714 125.0313,751.6714 Q125.6563,751.6714 126.25,751.4058 Q126.8438,751.1245 127.4688,750.5464 L127.4688,753.2652 Z " fill="#000000"/><text fill="#D9B8FF" font-family="Helvetica" font-size="17" lengthAdjust="spacing" textLength="183" x="143.5" y="753.5098">azure_network_usage</text></g><!--class azure_usage--><g id="elem_azure_usage"><rect codeLine="26" fill="#3D176E" height="39.7891" id="azure_usage" rx="2.5" ry="2.5" style="stroke:#000D19;stroke-width:0.5;" width="146" x="160" y="467.15"/><ellipse cx="175" cy="487.0445" fill="#ADD1B2" rx="11" ry="11" style="stroke:#181818;stroke-width:1.0;"/><path d="M177.9688,492.6852 Q177.3906,492.982 176.75,493.1227 Q176.1094,493.2789 175.4063,493.2789 Q172.9063,493.2789 171.5781,491.6383 Q170.2656,489.982 170.2656,486.857 Q170.2656,483.732 171.5781,482.0758 Q172.9063,480.4195 175.4063,480.4195 Q176.1094,480.4195 176.75,480.5758 Q177.4063,480.732 177.9688,481.0289 L177.9688,483.7477 Q177.3438,483.1695 176.75,482.9039 Q176.1563,482.6227 175.5313,482.6227 Q174.1875,482.6227 173.5,483.7008 Q172.8125,484.7633 172.8125,486.857 Q172.8125,488.9508 173.5,490.0289 Q174.1875,491.0914 175.5313,491.0914 Q176.1563,491.0914 176.75,490.8258 Q177.3438,490.5445 177.9688,489.9664 L177.9688,492.6852 Z " fill="#000000"/><text fill="#D9B8FF" font-family="Helvetica" font-size="17" lengthAdjust="spacing" textLength="104" x="194" y="492.9298">azure_usage</text></g><!--class microsoft_resource--><g id="elem_microsoft_resource"><rect codeLine="29" fill="#3D176E" height="39.7891" id="microsoft_resource" rx="2.5" ry="2.5" style="stroke:#000D19;stroke-width:0.5;" width="200" x="7" y="267.57"/><ellipse cx="22" cy="287.4645" fill="#ADD1B2" rx="11" ry="11" style="stroke:#181818;stroke-width:1.0;"/><path d="M24.9688,293.1052 Q24.3906,293.402 23.75,293.5427 Q23.1094,293.6989 22.4063,293.6989 Q19.9063,293.6989 18.5781,292.0583 Q17.2656,290.402 17.2656,287.277 Q17.2656,284.152 18.5781,282.4958 Q19.9063,280.8395 22.4063,280.8395 Q23.1094,280.8395 23.75,280.9958 Q24.4063,281.152 24.9688,281.4489 L24.9688,284.1677 Q24.3438,283.5895 23.75,283.3239 Q23.1563,283.0427 22.5313,283.0427 Q21.1875,283.0427 20.5,284.1208 Q19.8125,285.1833 19.8125,287.277 Q19.8125,289.3708 20.5,290.4489 Q21.1875,291.5114 22.5313,291.5114 Q23.1563,291.5114 23.75,291.2458 Q24.3438,290.9645 24.9688,290.3864 L24.9688,293.1052 Z " fill="#000000"/><text fill="#D9B8FF" font-family="Helvetica" font-size="17" lengthAdjust="spacing" textLength="158" x="41" y="293.3498">microsoft_resource</text></g><!--class network_quota--><g id="elem_network_quota"><rect codeLine="32" fill="#3D176E" height="39.7891" id="network_quota" rx="2.5" ry="2.5" style="stroke:#000D19;stroke-width:0.5;" width="169" x="274.5" y="566.94"/><ellipse cx="289.5" cy="586.8345" fill="#ADD1B2" rx="11" ry="11" style="stroke:#181818;stroke-width:1.0;"/><path d="M292.4688,592.4752 Q291.8906,592.772 291.25,592.9127 Q290.6094,593.0689 289.9063,593.0689 Q287.4063,593.0689 286.0781,591.4283 Q284.7656,589.772 284.7656,586.647 Q284.7656,583.522 286.0781,581.8658 Q287.4063,580.2095 289.9063,580.2095 Q290.6094,580.2095 291.25,580.3658 Q291.9063,580.522 292.4688,580.8189 L292.4688,583.5377 Q291.8438,582.9595 291.25,582.6939 Q290.6563,582.4127 290.0313,582.4127 Q288.6875,582.4127 288,583.4908 Q287.3125,584.5533 287.3125,586.647 Q287.3125,588.7408 288,589.8189 Q288.6875,590.8814 290.0313,590.8814 Q290.6563,590.8814 291.25,590.6158 Q291.8438,590.3345 292.4688,589.7564 L292.4688,592.4752 Z " fill="#000000"/><text fill="#D9B8FF" font-family="Helvetica" font-size="17" lengthAdjust="spacing" textLength="127" x="308.5" y="592.7198">network_quota</text></g><!--class phantom_resource--><g id="elem_phantom_resource"><rect codeLine="35" fill="#3D176E" height="39.7891" id="phantom_resource" rx="2.5" ry="2.5" style="stroke:#000D19;stroke-width:0.5;" width="198" x="161" y="167.79"/><ellipse cx="176" cy="187.6845" fill="#ADD1B2" rx="11" ry="11" style="stroke:#181818;stroke-width:1.0;"/><path d="M178.9688,193.3252 Q178.3906,193.622 177.75,193.7627 Q177.1094,193.9189 176.4063,193.9189 Q173.9063,193.9189 172.5781,192.2783 Q171.2656,190.622 171.2656,187.497 Q171.2656,184.372 172.5781,182.7158 Q173.9063,181.0595 176.4063,181.0595 Q177.1094,181.0595 177.75,181.2158 Q178.4063,181.372 178.9688,181.6689 L178.9688,184.3877 Q178.3438,183.8095 177.75,183.5439 Q177.1563,183.2627 176.5313,183.2627 Q175.1875,183.2627 174.5,184.3408 Q173.8125,185.4033 173.8125,187.497 Q173.8125,189.5908 174.5,190.6689 Q175.1875,191.7314 176.5313,191.7314 Q177.1563,191.7314 177.75,191.4658 Q178.3438,191.1845 178.9688,190.6064 L178.9688,193.3252 Z " fill="#000000"/><text fill="#D9B8FF" font-family="Helvetica" font-size="17" lengthAdjust="spacing" textLength="156" x="195" y="193.5698">phantom_resource</text></g><!--class quota--><g id="elem_quota"><rect codeLine="38" fill="#3D176E" height="39.7891" id="quota" rx="2.5" ry="2.5" style="stroke:#000D19;stroke-width:0.5;" width="90" x="313" y="367.36"/><ellipse cx="328" cy="387.2545" fill="#ADD1B2" rx="11" ry="11" style="stroke:#181818;stroke-width:1.0;"/><path d="M330.9688,392.8952 Q330.3906,393.192 329.75,393.3327 Q329.1094,393.4889 328.4063,393.4889 Q325.9063,393.4889 324.5781,391.8483 Q323.2656,390.192 323.2656,387.067 Q323.2656,383.942 324.5781,382.2858 Q325.9063,380.6295 328.4063,380.6295 Q329.1094,380.6295 329.75,380.7858 Q330.4063,380.942 330.9688,381.2389 L330.9688,383.9577 Q330.3438,383.3795 329.75,383.1139 Q329.1563,382.8327 328.5313,382.8327 Q327.1875,382.8327 326.5,383.9108 Q325.8125,384.9733 325.8125,387.067 Q325.8125,389.1608 326.5,390.2389 Q327.1875,391.3014 328.5313,391.3014 Q329.1563,391.3014 329.75,391.0358 Q330.3438,390.7545 330.9688,390.1764 L330.9688,392.8952 Z " fill="#000000"/><text fill="#D9B8FF" font-family="Helvetica" font-size="17" lengthAdjust="spacing" textLength="48" x="347" y="393.1398">quota</text></g><!--class resource--><g id="elem_resource"><rect codeLine="41" fill="#3D176E" height="39.7891" id="resource" rx="2.5" ry="2.5" style="stroke:#000D19;stroke-width:0.5;" width="113" x="86.5" y="7"/><ellipse cx="101.5" cy="26.8945" fill="#ADD1B2" rx="11" ry="11" style="stroke:#181818;stroke-width:1.0;"/><path d="M104.4688,32.5352 Q103.8906,32.832 103.25,32.9727 Q102.6094,33.1289 101.9063,33.1289 Q99.4063,33.1289 98.0781,31.4883 Q96.7656,29.832 96.7656,26.707 Q96.7656,23.582 98.0781,21.9258 Q99.4063,20.2695 101.9063,20.2695 Q102.6094,20.2695 103.25,20.4258 Q103.9063,20.582 104.4688,20.8789 L104.4688,23.5977 Q103.8438,23.0195 103.25,22.7539 Q102.6563,22.4727 102.0313,22.4727 Q100.6875,22.4727 100,23.5508 Q99.3125,24.6133 99.3125,26.707 Q99.3125,28.8008 100,29.8789 Q100.6875,30.9414 102.0313,30.9414 Q102.6563,30.9414 103.25,30.6758 Q103.8438,30.3945 104.4688,29.8164 L104.4688,32.5352 Z " fill="#000000"/><text fill="#D9B8FF" font-family="Helvetica" font-size="17" lengthAdjust="spacing" textLength="71" x="120.5" y="32.7798">resource</text></g><!--reverse link azure_usage to azure_network_usage--><g id="link_azure_usage_azure_network_usage"><path codeLine="44" d="M231.4247,525.0437 C229.3947,572.7437 224.87,679.13 222.83,727.23 " fill="none" id="azure_usage-backto-azure_network_usage" style="stroke:#FFAF37;stroke-width:2.0;"/><polygon fill="none" points="232.19,507.06,225.4301,524.7886,237.4192,525.2988,232.19,507.06" style="stroke:#FFAF37;stroke-width:2.0;"/></g><!--reverse link microsoft_resource to azure_network_usage--><g id="link_microsoft_resource_azure_network_usage"><path codeLine="45" d="M107,325.82 C107,361.2 107,420.7 107,486.05 C107,486.05 107,486.05 107,587.84 C107,647.74 161.36,700.33 195.33,727.35 " fill="none" id="microsoft_resource-backto-azure_network_usage" style="stroke:#FFAF37;stroke-width:2.0;"/><polygon fill="none" points="107,307.82,101,325.82,113,325.82,107,307.82" style="stroke:#FFAF37;stroke-width:2.0;"/></g><!--reverse link network_quota to azure_network_usage--><g id="link_network_quota_azure_network_usage"><path codeLine="46" d="M330.7121,620.619 C304.3821,651.139 264.95,696.84 238.58,727.4 " fill="none" id="network_quota-backto-azure_network_usage" style="stroke:#FFAF37;stroke-width:2.0;"/><polygon fill="none" points="342.47,606.99,326.169,616.6997,335.2551,624.5384,342.47,606.99" style="stroke:#FFAF37;stroke-width:2.0;"/></g><!--reverse link phantom_resource to azure_usage--><g id="link_phantom_resource_azure_usage"><path codeLine="47" d="M256.641,225.6561 C251.771,279.2461 239.64,412.91 234.75,466.77 " fill="none" id="phantom_resource-backto-azure_usage" style="stroke:#FFAF37;stroke-width:2.0;"/><polygon fill="none" points="258.27,207.73,250.6656,225.1131,262.6163,226.1991,258.27,207.73" style="stroke:#FFAF37;stroke-width:2.0;"/></g><!--reverse link resource to microsoft_resource--><g id="link_resource_microsoft_resource"><path codeLine="48" d="M137.8688,64.7282 C131.2288,112.4382 116.4,218.97 109.7,267.08 " fill="none" id="resource-backto-microsoft_resource" style="stroke:#FFAF37;stroke-width:2.0;"/><polygon fill="none" points="140.35,46.9,131.9261,63.9011,143.8115,65.5552,140.35,46.9" style="stroke:#FFAF37;stroke-width:2.0;"/></g><!--reverse link quota to network_quota--><g id="link_quota_network_quota"><path codeLine="49" d="M358.1905,425.5598 C358.3805,463.3298 358.71,528.62 358.9,566.45 " fill="none" id="quota-backto-network_quota" style="stroke:#FFAF37;stroke-width:2.0;"/><polygon fill="none" points="358.1,407.56,352.1906,425.59,364.1905,425.5296,358.1,407.56" style="stroke:#FFAF37;stroke-width:2.0;"/></g><!--reverse link resource to phantom_resource--><g id="link_resource_phantom_resource"><path codeLine="50" d="M167.7881,61.5306 C190.2781,92.0506 223.32,136.9 245.84,167.46 " fill="none" id="resource-backto-phantom_resource" style="stroke:#FFAF37;stroke-width:2.0;"/><polygon fill="none" points="157.11,47.04,162.9579,65.09,172.6183,57.9713,157.11,47.04" style="stroke:#FFAF37;stroke-width:2.0;"/></g><!--reverse link phantom_resource to quota--><g id="link_phantom_resource_quota"><path codeLine="51" d="M277.5752,224.1069 C296.3052,261.8869 329.62,329.04 348.39,366.88 " fill="none" id="phantom_resource-backto-quota" style="stroke:#FFAF37;stroke-width:2.0;"/><polygon fill="none" points="269.58,207.98,272.1995,226.772,282.9508,221.4419,269.58,207.98" style="stroke:#FFAF37;stroke-width:2.0;"/></g><!--SRC=[XP31JW8n48Rl-nHDF9E0H8742v8OlH0ZticmdRBDxhRhT5O2whihhfXkkmlN_j_C_qqpBL5WMV5Ub5Xka5pYScqg82Z5dCZk5hQm9AwK0ZMUXE63DNmHM4A9uX6BTsITGaYyPZhD3Jedhhte7j9yIxOsibdF1CRzH6ZOenO5E3Td9hsf6JqPETjCbGh9SEdLM8ucjnXXbYJI7p8S3kLe5Y8NgyxU_K-iz075oF-qfMMCDAEAN-givP7m9AD3JtclupD8gSrMt7XlBuqJ6QJM-oe3QNT7Ma7X_1h7I6XvN-4YkWfdKwacdV1J7voanwyJSAW9rmPvPobVrmwsA3wIvAiLHy-bJiawgtXDw6nDQIizRNkhBOCVL1aOjcNdK0It8L_axdCm67IP9nrU_N1Riv-Bh7sqGO8eraZyabPnE1kszTKtmzy0]--></g></svg>

<svg xmlns="http://www.w3.org/2000/svg" width="450" height="773" viewBox="0 0 450 773"><rect width="225" height="39.789" x="109.5" y="727.73" fill="#3D176E" rx="2.5" ry="2.5" style="stroke:#000d19;stroke-width:.5"/><circle cx="124.5" cy="747.625" r="11" fill="#ADD1B2" style="stroke:#181818;stroke-width:1"/><path d="M127.469 753.265q-.578.297-1.219.438-.64.156-1.344.156-2.5 0-3.828-1.64-1.312-1.657-1.312-4.782t1.312-4.781q1.328-1.656 3.828-1.656.703 0 1.344.156.656.156 1.219.453v2.719q-.625-.578-1.219-.844-.594-.281-1.219-.281-1.344 0-2.031 1.078-.687 1.062-.687 3.156t.687 3.172q.688 1.062 2.031 1.062.625 0 1.219-.265.594-.281 1.219-.86z"/><text x="143.5" y="753.51" fill="#D9B8FF" font-family="Helvetica" font-size="17" textLength="183">azure_network_usage</text><rect width="146" height="39.789" x="160" y="467.15" fill="#3D176E" rx="2.5" ry="2.5" style="stroke:#000d19;stroke-width:.5"/><circle cx="175" cy="487.045" r="11" fill="#ADD1B2" style="stroke:#181818;stroke-width:1"/><path d="M177.969 492.685q-.578.297-1.219.438-.64.156-1.344.156-2.5 0-3.828-1.64-1.312-1.657-1.312-4.782t1.312-4.781q1.328-1.656 3.828-1.656.703 0 1.344.156.656.156 1.219.453v2.719q-.625-.578-1.219-.844-.594-.281-1.219-.281-1.344 0-2.031 1.078-.687 1.062-.687 3.156t.687 3.172q.688 1.062 2.031 1.062.625 0 1.219-.265.594-.281 1.219-.86z"/><text x="194" y="492.93" fill="#D9B8FF" font-family="Helvetica" font-size="17" textLength="104">azure_usage</text><rect width="200" height="39.789" x="7" y="267.57" fill="#3D176E" rx="2.5" ry="2.5" style="stroke:#000d19;stroke-width:.5"/><circle cx="22" cy="287.464" r="11" fill="#ADD1B2" style="stroke:#181818;stroke-width:1"/><path d="M24.969 293.105q-.578.297-1.219.438-.64.156-1.344.156-2.5 0-3.828-1.64-1.312-1.657-1.312-4.782t1.312-4.781q1.328-1.656 3.828-1.656.703 0 1.344.156.656.156 1.219.453v2.719q-.625-.579-1.219-.844-.594-.281-1.219-.281-1.343 0-2.031 1.078-.687 1.062-.687 3.156t.687 3.172q.688 1.062 2.031 1.062.625 0 1.219-.265.594-.281 1.219-.86z"/><text x="41" y="293.35" fill="#D9B8FF" font-family="Helvetica" font-size="17" textLength="158">microsoft_resource</text><rect width="169" height="39.789" x="274.5" y="566.94" fill="#3D176E" rx="2.5" ry="2.5" style="stroke:#000d19;stroke-width:.5"/><circle cx="289.5" cy="586.835" r="11" fill="#ADD1B2" style="stroke:#181818;stroke-width:1"/><path d="M292.469 592.475q-.578.297-1.219.438-.64.156-1.344.156-2.5 0-3.828-1.64-1.312-1.657-1.312-4.782t1.312-4.781q1.328-1.656 3.828-1.656.703 0 1.344.156.656.156 1.219.453v2.719q-.625-.578-1.219-.844-.594-.281-1.219-.281-1.344 0-2.031 1.078-.687 1.062-.687 3.156t.687 3.172q.688 1.062 2.031 1.062.625 0 1.219-.265.594-.281 1.219-.86z"/><text x="308.5" y="592.72" fill="#D9B8FF" font-family="Helvetica" font-size="17" textLength="127">network_quota</text><rect width="198" height="39.789" x="161" y="167.79" fill="#3D176E" rx="2.5" ry="2.5" style="stroke:#000d19;stroke-width:.5"/><circle cx="176" cy="187.685" r="11" fill="#ADD1B2" style="stroke:#181818;stroke-width:1"/><path d="M178.969 193.325q-.578.297-1.219.438-.64.156-1.344.156-2.5 0-3.828-1.64-1.312-1.657-1.312-4.782t1.312-4.781q1.328-1.656 3.828-1.656.703 0 1.344.156.656.156 1.219.453v2.719q-.625-.578-1.219-.844-.594-.281-1.219-.281-1.344 0-2.031 1.078-.687 1.062-.687 3.156t.687 3.172q.688 1.062 2.031 1.062.625 0 1.219-.265.594-.281 1.219-.86z"/><text x="195" y="193.57" fill="#D9B8FF" font-family="Helvetica" font-size="17" textLength="156">phantom_resource</text><rect width="90" height="39.789" x="313" y="367.36" fill="#3D176E" rx="2.5" ry="2.5" style="stroke:#000d19;stroke-width:.5"/><circle cx="328" cy="387.255" r="11" fill="#ADD1B2" style="stroke:#181818;stroke-width:1"/><path d="M330.969 392.895q-.578.297-1.219.438-.64.156-1.344.156-2.5 0-3.828-1.64-1.312-1.657-1.312-4.782t1.312-4.781q1.328-1.656 3.828-1.656.703 0 1.344.156.656.156 1.219.453v2.719q-.625-.579-1.219-.844-.594-.281-1.219-.281-1.344 0-2.031 1.078-.687 1.062-.687 3.156t.687 3.172q.688 1.062 2.031 1.062.625 0 1.219-.265.594-.281 1.219-.86z"/><text x="347" y="393.14" fill="#D9B8FF" font-family="Helvetica" font-size="17" textLength="48">quota</text><rect width="113" height="39.789" x="86.5" y="7" fill="#3D176E" rx="2.5" ry="2.5" style="stroke:#000d19;stroke-width:.5"/><circle cx="101.5" cy="26.895" r="11" fill="#ADD1B2" style="stroke:#181818;stroke-width:1"/><path d="M104.469 32.535q-.578.297-1.219.438-.64.156-1.344.156-2.5 0-3.828-1.64-1.312-1.657-1.312-4.782t1.312-4.781q1.328-1.656 3.828-1.656.703 0 1.344.156.656.156 1.219.453v2.719q-.625-.578-1.219-.844-.594-.281-1.219-.281-1.344 0-2.031 1.078-.687 1.062-.687 3.156t.687 3.172q.688 1.062 2.031 1.062.625 0 1.219-.265.594-.281 1.219-.86z"/><text x="120.5" y="32.78" fill="#D9B8FF" font-family="Helvetica" font-size="17" textLength="71">resource</text><g fill="none"><path d="M231.425 525.044c-2.03 47.7-6.555 154.086-8.595 202.186" style="stroke:#ffaf37;stroke-width:2"/><path d="m232.19 507.06-6.76 17.729 11.99.51z" style="stroke:#ffaf37;stroke-width:2"/></g><path fill="none" d="M107 325.82v262.02c0 59.9 54.36 112.49 88.33 139.51M107 307.82l-6 18h12zm223.712 312.799c-26.33 30.52-65.762 76.221-92.132 106.781m103.89-120.41-16.301 9.71 9.086 7.838z" style="stroke:#ffaf37;stroke-width:2"/><g fill="none"><path d="M256.641 225.656c-4.87 53.59-17.001 187.254-21.891 241.114" style="stroke:#ffaf37;stroke-width:2"/><path d="m258.27 207.73-7.604 17.383 11.95 1.086z" style="stroke:#ffaf37;stroke-width:2"/></g><g fill="none"><path d="M137.869 64.728c-6.64 47.71-21.469 154.242-28.169 202.352" style="stroke:#ffaf37;stroke-width:2"/><path d="m140.35 46.9-8.424 17.001 11.886 1.654z" style="stroke:#ffaf37;stroke-width:2"/></g><path fill="none" d="m358.19 425.56.71 140.89m-.8-158.89-5.91 18.03 12-.06z" style="stroke:#ffaf37;stroke-width:2"/><g fill="none"><path d="M167.788 61.53c22.49 30.52 55.532 75.37 78.052 105.93" style="stroke:#ffaf37;stroke-width:2"/><path d="m157.11 47.04 5.848 18.05 9.66-7.119z" style="stroke:#ffaf37;stroke-width:2"/></g><path fill="none" d="M277.575 224.107c18.73 37.78 52.045 104.933 70.815 142.773m-78.81-158.9 2.62 18.792 10.75-5.33z" style="stroke:#ffaf37;stroke-width:2"/></svg>
